data/zen-antique.svg

<svg width="82.838" height="20.272" viewBox="0 0 82.838 20.272" xmlns="http://www.w3.org/2000/svg"><path transform="translate(0 16.24) scale(.014 -.014)" d="m601 0q-2 0-13 0-24 1-89 2.5t-169 0.5l-265-3q-20 0-22.5 12t7.5 29q10 18 36.5 60t63.5 99.5 78.5 121.5 82.5 126.5 76.5 115.5 59 88 29.5 42h-204q-50 0-84-24.5t-55-59.5-32-65q-1-4-4.5-7.5t-11.5-2.5q-7 1-9 6t-2 9q0 3 1 22.5t2 46 2 49.5 2 33q1 26 27 26 5 0 27-1t70-1.5 132-0.5h259q17 0 22-13t-5-28q-3-5-22-33.5t-48.5-74-65.5-101-74.5-114-75.5-114.5-67.5-102-50.5-76-25-36h267q41 0 68 19t44 47 27 55.5 16 44.5q3 9 18 9 7 0 8.5-4.5t1.5-9.5q0-3-1-26t-2-53-2.5-55.5-1.5-33.5q-1-25-26-25z"/><path transform="translate(9.338 16.24) scale(.014 -.014)" d="m283-12q-114 0-178.5 62t-64.5 178q0 73 29 131t82.5 92 124.5 34q54 0 94-21t66-55 39-73.5 13-77.5q0-16-20-16h-310q-2-76 13.5-119t46.5-60 75-17q51 0 91.5 22t66.5 55q11 13 25 4t4-24q-20-30-45.5-56t-62-42.5-89.5-16.5zm-123 293h208q2 48-6.5 86t-29 60-58.5 22q-48 0-75-45.5t-39-122.5z"/><path transform="translate(16.73 16.24) scale(.014 -.014)" d="m46 0q-15 0-15 17 0 16 15 16 34 0 46.5 15t12.5 51v288q0 20-3 31.5t-16 13.5q-7 2-21 3.5t-21 2.5q-14 2-14 16 0 16 15 16 3 0 23 1t45 1.5 46 0.5 27 0q25-1 25-26v-56q14 23 37.5 44.5t56.5 35.5 73 14q37 0 68-14t50-47 19-91v-232q0-38 11.5-53t36.5-15q15 0 15-16 0-17-15-17-7 0-25 1t-39 1.5-39 0.5q-17 0-38-0.5t-38.5-1.5-25.5-1q-15 0-15 17 0 16 15 16 31 0 40 15t9 51v220q0 57-21 80.5t-59 23.5q-28 0-54.5-17.5t-43-46.5-16.5-64v-194q0-38 11-53t33-15q16 0 16-16 0-17-16-17-11 0-41.5 1.5t-56.5 1.5q-17 0-41-0.5t-44-1.5-28-1z"/><path transform="translate(29.162 16.24) scale(.014 -.014)" d="m31 0q-13 0-13 13 0 16 13 16 35 0 55 12.5t36 47.5q8 16 23.5 54t36 91 43.5 113 46 120 42.5 111.5 33 88.5 18.5 50 11.5 17 22.5 4 23-4 12-17q8-20 25.5-65t40.5-104 48-123.5 48.5-125.5 42.5-110.5 30-76.5q18-46 38.5-64.5t39.5-18.5q13 0 13-16 0-13-13-13-10 0-41 0.5t-83 0.5q-43 0-82-0.5t-49-0.5q-13 0-13 13 0 16 13 16 32 0 44.5 10.5t12.5 25-5 24.5q-1 2-7 20t-14.5 43.5-17.5 51-15 43.5h-270q-6-20-15.5-50.5t-17-59.5-7.5-47q0-37 18.5-49t51.5-12q13 0 13-16 0-13-13-13-10 0-37.5 0.5t-71.5 0.5q-39 0-69-0.5t-41-0.5zm202 280h244l-117 330z"/><path transform="translate(39.984 16.24) scale(.014 -.014)" d="m46 0q-15 0-15 17 0 16 15 16 34 0 46.5 15t12.5 51v288q0 20-3 31.5t-16 13.5q-7 2-21 3.5t-21 2.5q-14 2-14 16 0 16 15 16 3 0 23 1t45 1.5 46 0.5 27 0q25-1 25-26v-56q14 23 37.5 44.5t56.5 35.5 73 14q37 0 68-14t50-47 19-91v-232q0-38 11.5-53t36.5-15q15 0 15-16 0-17-15-17-7 0-25 1t-39 1.5-39 0.5q-17 0-38-0.5t-38.5-1.5-25.5-1q-15 0-15 17 0 16 15 16 31 0 40 15t9 51v220q0 57-21 80.5t-59 23.5q-28 0-54.5-17.5t-43-46.5-16.5-64v-194q0-38 11-53t33-15q16 0 16-16 0-17-16-17-11 0-41.5 1.5t-56.5 1.5q-17 0-41-0.5t-44-1.5-28-1z"/><path transform="translate(48.496 16.24) scale(.014 -.014)" d="m223-12q-43 0-75 20t-32 75v351h-70q-16 0-16 16v3q0 7 4.5 10.5t11.5 5.5q58 20 89.5 60.5t39.5 113.5q0 16 16 16h17q6 0 11-4.5t5-11.5v-170h122q16 0 16-15v-8q0-16-16-16h-122v-316q0-55 57-55 27 0 48.5 16t32.5 37q8 15 25 5 7-4 7-10t-3-14q-17-43-58.5-76t-109.5-33z"/><path transform="translate(54.25 16.24) scale(.014 -.014)" d="m52 0q-16 0-16 16 0 17 16 17 38 0 51 16t13 52v284q0 28-5.5 37.5t-19.5 10.5q-7 1-23.5 2.5t-23.5 2.5q-14 3-14 17 0 16 15 16 3 0 25 0.5t49.5 0.5 50.5 0.5 29 0.5q25 0 25-23v-349q0-36 12-52t44-16q15 0 15-17 0-16-15-16-7 0-27 1t-43 1.5-41 0.5q-17 0-42-0.5t-46.5-1.5-28.5-1zm110 582q-30 0-51 21t-21 51 21 51 51 21 51-21 21-51-21-51-51-21z"/><path transform="translate(58.8 16.24) scale(.014 -.014)" d="m318-207q-16 0-16 16 0 17 16 17 38 0 51 16t13 52v158q-10-11-28.5-26t-45.5-26.5-65-11.5q-52 0-98.5 21.5t-75.5 75-29 147.5q0 69 20.5 117t53.5 78 73 44 79 14q50 0 80.5-15t48-34 27.5-31q13 18 26.5 37.5t22.5 30.5q5 7 16 4t10-15q-1-11-4-52t-3-115v-404q0-36 16.5-50.5t53.5-14.5q16 0 16-17 0-16-16-16-7 0-30.5 1t-49.5 1.5-44 0.5q-17 0-42-0.5t-46.5-1.5-29.5-1zm-53 232q26 0 53.5 16.5t46.5 51.5 19 91v97q0 87-31.5 126.5t-78.5 39.5q-59 0-88-48t-29-167q0-83 13.5-128t38-62 56.5-17z"/><path transform="translate(67.004 16.24) scale(.014 -.014)" d="m261-12q-70 0-114.5 36t-44.5 115v247q0 23-4.5 34t-19.5 14q-8 2-19.5 3t-19.5 2q-14 3-14 17 0 16 15 16 3 0 23.5 0.5t46.5 0.5 47.5 0.5 27.5 0.5q25 0 25-26v-293q0-52 26-76t68-24q53 0 78.5 33.5t25.5 79.5v218q0 23-4.5 34t-19.5 14q-8 2-19.5 3t-19.5 2q-14 3-14 17 0 16 15 16 3 0 23.5 0.5t46.5 0.5 47.5 0.5 27.5 0.5q25 0 25-26v-361q0-28 5.5-36t18.5-11q7-1 12.5-2.5t10.5-3.5q15-1 15-16 0-16-16-16-3 0-20-0.5t-39.5-0.5-41-0.5-24.5-0.5q-24 0-25 23 0 8-1 26.5t-3 26.5q-2-1-11-14.5t-26-30.5-44-30-66-13z"/><path transform="translate(75.446 16.24) scale(.014 -.014)" d="m283-12q-114 0-178.5 62t-64.5 178q0 73 29 131t82.5 92 124.5 34q54 0 94-21t66-55 39-73.5 13-77.5q0-16-20-16h-310q-2-76 13.5-119t46.5-60 75-17q51 0 91.5 22t66.5 55q11 13 25 4t4-24q-20-30-45.5-56t-62-42.5-89.5-16.5zm-123 293h208q2 48-6.5 86t-29 60-58.5 22q-48 0-75-45.5t-39-122.5z"/></svg>

<?xml version="1.0" encoding="utf-8" ?>
<svg baseProfile="tiny" height="100%" version="1.2" width="100%" xmlns="http://www.w3.org/2000/svg" xmlns:ev="http://www.w3.org/2001/xml-events" xmlns:xlink="http://www.w3.org/1999/xlink"><defs /><g><path d="M601 0Q599 0 588 0Q564 1 499.0 2.5Q434 4 330 3L65 0Q45 0 42.5 12.0Q40 24 50 41Q60 59 86.5 101.0Q113 143 150.0 200.5Q187 258 228.5 322.0Q270 386 311.0 448.5Q352 511 387.5 564.0Q423 617 446.5 652.0Q470 687 476 694H272Q222 694 188.0 669.5Q154 645 133.0 610.0Q112 575 101 545Q100 541 96.5 537.5Q93 534 85 535Q78 536 76.0 541.0Q74 546 74 550Q74 553 75.0 572.5Q76 592 77.0 618.5Q78 645 79.0 668.0Q80 691 81 701Q82 727 108 727Q113 727 135.0 726.0Q157 725 205.0 724.5Q253 724 337 724H596Q613 724 618.0 711.0Q623 698 613 683Q610 678 591.0 649.5Q572 621 542.5 575.5Q513 530 477.0 474.5Q441 419 402.5 360.5Q364 302 327.0 246.0Q290 190 259.5 144.0Q229 98 209.0 68.0Q189 38 184 32H451Q492 32 519.0 51.0Q546 70 563.0 98.0Q580 126 590.0 153.5Q600 181 606 198Q609 207 624 207Q631 207 632.5 202.5Q634 198 634 193Q634 190 633.0 167.0Q632 144 631.0 114.0Q630 84 628.5 58.5Q627 33 627 25Q626 0 601 0Z" transform="translate(0.0, 72) scale(0.072, -0.072)" /><path d="M283 -12Q169 -12 104.5 50.0Q40 112 40 228Q40 301 69.0 359.0Q98 417 151.5 451.0Q205 485 276 485Q330 485 370.0 464.0Q410 443 436.0 409.0Q462 375 475.0 335.5Q488 296 488 258Q488 242 468 242H158Q156 166 171.5 123.0Q187 80 218.0 63.0Q249 46 293 46Q344 46 384.5 68.0Q425 90 451 123Q462 136 476 127Q490 118 480 103Q460 73 434.5 47.0Q409 21 372.5 4.5Q336 -12 283 -12ZM160 281H368Q370 329 361.5 367.0Q353 405 332.5 427.0Q312 449 274 449Q226 449 199.0 403.5Q172 358 160 281Z" transform="translate(48.023999999999994, 72) scale(0.072, -0.072)" /><path d="M46 0Q31 0 31 17Q31 33 46 33Q80 33 92.5 48.0Q105 63 105 99V387Q105 407 102.0 418.5Q99 430 86 432Q79 434 65.0 435.5Q51 437 44 438Q30 440 30 454Q30 470 45 470Q48 470 68.0 471.0Q88 472 113.0 472.5Q138 473 159.0 473.0Q180 473 186 473Q211 472 211 447V391Q225 414 248.5 435.5Q272 457 305.0 471.0Q338 485 378 485Q415 485 446.0 471.0Q477 457 496.0 424.0Q515 391 515 333V101Q515 63 526.5 48.0Q538 33 563 33Q578 33 578 17Q578 0 563 0Q556 0 538.0 1.0Q520 2 499.0 2.5Q478 3 460 3Q443 3 422.0 2.5Q401 2 383.5 1.0Q366 0 358 0Q343 0 343 17Q343 33 358 33Q389 33 398.0 48.0Q407 63 407 99V319Q407 376 386.0 399.5Q365 423 327 423Q299 423 272.5 405.5Q246 388 229.5 359.0Q213 330 213 295V101Q213 63 224.0 48.0Q235 33 257 33Q273 33 273 17Q273 0 257 0Q246 0 215.5 1.5Q185 3 159 3Q142 3 118.0 2.5Q94 2 74.0 1.0Q54 0 46 0Z" transform="translate(86.03999999999999, 72) scale(0.072, -0.072)" /><path d="M31 0Q18 0 18 13Q18 29 31 29Q66 29 86.0 41.5Q106 54 122 89Q130 105 145.5 143.0Q161 181 181.5 234.0Q202 287 225.0 347.0Q248 407 271.0 467.0Q294 527 313.5 578.5Q333 630 346.5 667.0Q360 704 365 717Q370 730 376.5 734.0Q383 738 399 738Q415 738 422.0 734.0Q429 730 434 717Q442 697 459.5 652.0Q477 607 500.0 548.0Q523 489 548.0 424.5Q573 360 596.5 299.0Q620 238 639.0 188.5Q658 139 669 112Q687 66 707.5 47.5Q728 29 747 29Q760 29 760 13Q760 0 747 0Q737 0 706.0 0.5Q675 1 623 1Q580 1 541.0 0.5Q502 0 492 0Q479 0 479 13Q479 29 492 29Q524 29 536.5 39.5Q549 50 549.0 64.5Q549 79 544 89Q543 91 537.0 109.0Q531 127 522.5 152.5Q514 178 505.0 203.5Q496 229 490 247H220Q214 227 204.5 196.5Q195 166 187.5 137.0Q180 108 180 90Q180 53 198.5 41.0Q217 29 250 29Q263 29 263 13Q263 0 250 0Q240 0 212.5 0.5Q185 1 141 1Q102 1 72.0 0.5Q42 0 31 0ZM233 280H477L360 610Z" transform="translate(149.97599999999997, 72) scale(0.072, -0.072)" /><path d="M46 0Q31 0 31 17Q31 33 46 33Q80 33 92.5 48.0Q105 63 105 99V387Q105 407 102.0 418.5Q99 430 86 432Q79 434 65.0 435.5Q51 437 44 438Q30 440 30 454Q30 470 45 470Q48 470 68.0 471.0Q88 472 113.0 472.5Q138 473 159.0 473.0Q180 473 186 473Q211 472 211 447V391Q225 414 248.5 435.5Q272 457 305.0 471.0Q338 485 378 485Q415 485 446.0 471.0Q477 457 496.0 424.0Q515 391 515 333V101Q515 63 526.5 48.0Q538 33 563 33Q578 33 578 17Q578 0 563 0Q556 0 538.0 1.0Q520 2 499.0 2.5Q478 3 460 3Q443 3 422.0 2.5Q401 2 383.5 1.0Q366 0 358 0Q343 0 343 17Q343 33 358 33Q389 33 398.0 48.0Q407 63 407 99V319Q407 376 386.0 399.5Q365 423 327 423Q299 423 272.5 405.5Q246 388 229.5 359.0Q213 330 213 295V101Q213 63 224.0 48.0Q235 33 257 33Q273 33 273 17Q273 0 257 0Q246 0 215.5 1.5Q185 3 159 3Q142 3 118.0 2.5Q94 2 74.0 1.0Q54 0 46 0Z" transform="translate(205.63199999999998, 72) scale(0.072, -0.072)" /><path d="M223 -12Q180 -12 148.0 8.0Q116 28 116 83V434H46Q30 434 30 450V453Q30 460 34.5 463.5Q39 467 46 469Q104 489 135.5 529.5Q167 570 175 643Q175 659 191 659H208Q214 659 219.0 654.5Q224 650 224 643V473H346Q362 473 362 458V450Q362 434 346 434H224V118Q224 63 281 63Q308 63 329.5 79.0Q351 95 362 116Q370 131 387 121Q394 117 394.0 111.0Q394 105 391 97Q374 54 332.5 21.0Q291 -12 223 -12Z" transform="translate(249.40799999999996, 72) scale(0.072, -0.072)" /><path d="M52 0Q36 0 36 16Q36 33 52 33Q90 33 103.0 49.0Q116 65 116 101V385Q116 413 110.5 422.5Q105 432 91 433Q84 434 67.5 435.5Q51 437 44 438Q30 441 30 455Q30 471 45 471Q48 471 70.0 471.5Q92 472 119.5 472.0Q147 472 170.0 472.5Q193 473 199 473Q224 473 224 450V101Q224 65 236.0 49.0Q248 33 280 33Q295 33 295 16Q295 0 280 0Q273 0 253.0 1.0Q233 2 210.0 2.5Q187 3 169 3Q152 3 127.0 2.5Q102 2 80.5 1.0Q59 0 52 0ZM162 582Q132 582 111.0 603.0Q90 624 90 654Q90 684 111.0 705.0Q132 726 162 726Q192 726 213.0 705.0Q234 684 234 654Q234 624 213.0 603.0Q192 582 162 582Z" transform="translate(278.99999999999994, 72) scale(0.072, -0.072)" /><path d="M318 -207Q302 -207 302 -191Q302 -174 318 -174Q356 -174 369.0 -158.0Q382 -142 382 -106V52Q372 41 353.5 26.0Q335 11 308.0 -0.5Q281 -12 243 -12Q191 -12 144.5 9.5Q98 31 69.0 84.5Q40 138 40 232Q40 301 60.5 349.0Q81 397 114.0 427.0Q147 457 187.0 471.0Q227 485 266 485Q316 485 346.5 470.0Q377 455 394.5 436.0Q412 417 422 405Q435 423 448.5 442.5Q462 462 471 473Q476 480 487.0 477.0Q498 474 497 462Q496 451 493.0 410.0Q490 369 490 295V-109Q490 -145 506.5 -159.5Q523 -174 560 -174Q576 -174 576 -191Q576 -207 560 -207Q553 -207 529.5 -206.0Q506 -205 480.0 -204.5Q454 -204 436 -204Q419 -204 394.0 -204.5Q369 -205 347.5 -206.0Q326 -207 318 -207ZM265 25Q291 25 318.5 41.5Q346 58 365.0 93.0Q384 128 384 184V281Q384 368 352.5 407.5Q321 447 274 447Q215 447 186.0 399.0Q157 351 157 232Q157 149 170.5 104.0Q184 59 208.5 42.0Q233 25 265 25Z" transform="translate(302.3999999999999, 72) scale(0.072, -0.072)" /><path d="M261 -12Q191 -12 146.5 24.0Q102 60 102 139V386Q102 409 97.5 420.0Q93 431 78 434Q70 436 58.5 437.0Q47 438 39 439Q25 442 25 456Q25 472 40 472Q43 472 63.5 472.5Q84 473 110.0 473.0Q136 473 157.5 473.5Q179 474 185 474Q210 474 210 448V155Q210 103 236.0 79.0Q262 55 304 55Q357 55 382.5 88.5Q408 122 408 168V386Q408 409 403.5 420.0Q399 431 384 434Q376 436 364.5 437.0Q353 438 345 439Q331 442 331 456Q331 472 346 472Q349 472 369.5 472.5Q390 473 416.0 473.0Q442 473 463.5 473.5Q485 474 491 474Q516 474 516 448V87Q516 59 521.5 51.0Q527 43 540 40Q547 39 552.5 37.5Q558 36 563 34Q578 33 578 18Q578 2 562 2Q559 2 542.0 1.5Q525 1 502.5 1.0Q480 1 461.5 0.5Q443 0 437 0Q413 0 412 23Q412 31 411.0 49.5Q410 68 408 76Q406 75 397.0 61.5Q388 48 371.0 31.0Q354 14 327.0 1.0Q300 -12 261 -12Z" transform="translate(344.5919999999999, 72) scale(0.072, -0.072)" /><path d="M283 -12Q169 -12 104.5 50.0Q40 112 40 228Q40 301 69.0 359.0Q98 417 151.5 451.0Q205 485 276 485Q330 485 370.0 464.0Q410 443 436.0 409.0Q462 375 475.0 335.5Q488 296 488 258Q488 242 468 242H158Q156 166 171.5 123.0Q187 80 218.0 63.0Q249 46 293 46Q344 46 384.5 68.0Q425 90 451 123Q462 136 476 127Q490 118 480 103Q460 73 434.5 47.0Q409 21 372.5 4.5Q336 -12 283 -12ZM160 281H368Q370 329 361.5 367.0Q353 405 332.5 427.0Q312 449 274 449Q226 449 199.0 403.5Q172 358 160 281Z" transform="translate(388.0079999999999, 72) scale(0.072, -0.072)" /></g></svg>
